X:21
T:Road to Lisdoonvarna
M:6/8
R:Slide
C:Traditional
K:Edor
(D | E2)B B2A | (B/c/B2) d3 | F2A (A/B/A2) | D2E FE(D |
E2)B B2A | (B/c/B2) d3 | cdc (B/c/B)A |[1 B2E E2 :|[2 B2E E3 |
|: e2f/f/ gfe | dB/B/B Bcd | ({=c}^c2)A ABc | dcd Bcd |
e2f/f/ gfe | dB/B/B Bcd | cdc (B/c/B)A |[1 B2E E3 :|[2 B2E E2 |]

